X: 24936
T: Maid Behind The Bar, The
R: reel
M: 4/4
K: Cmajor
|:G2GA GEDE|CE~E2 GAcd|e(d{e}dc) ~A3c|defe dcAc|
{^F}G2 cG AGcG|EG ~G2 EGcd|e(d{e}dc {d}cB)Ac|GEDE C3E:|
|:~g2 ^fg ecBc|eg^fg ecBc|A(d{e}d^c d)efg|a(g{a}g^f) g=fed|
ec~c2 GcEG|AF~F2 CFA,F|GABc d(g^fg|^fg)dB c3e:|

